X: 3915
T: Blackberry Quadrille, The
R: jig
M: 6/8
K: Dmajor
|:f|a2 a ba^g|a2 f d2 f|e2 c A2 f/g/|fdB A2 f/g/|
a>^ga bag|a2 f d2 f|e2 c A2 B/c/|d3 d2:|
|:F/G/|A2 B G2 A|F2 A dcd|g2 e c2 A|dfe dcB|
A2 B G2 A|FAd f^ef|g2 e A2 B/c/|d3 d2:|

